X:41
T:4. JACK'S THE LAD (32 bar reel/hornpipe)
T:Durham Rangers
R:Reel
R:Hornpipe
O:England
O:Scotland
M:4/4
A:Northumbria
K:D
P:A
FG|\
ABAF A2de|fgef d2dA|BcdB ABAF|G2E2 E2FG|
ABAF A2de|fgef d2dA|BcdB ABAG|F2D2 D2::
P:B
ag|\
fefg afdf|edcB A2fa|g2bg f2af|g2e2 e2FG|
ABAF A2de|fgef d2dA|BcdB ABAG F2D2 D2:|
